gama.ui.shared/icons_svg/dark/navigator/new.project2.svg

<svg height="25" viewBox="-202.997 -3555.419 25 25" width="25" xmlns="http://www.w3.org/2000/svg"><g fill="none"><path d="m-198.65697-3554.9187h16.32c2.12077 0 3.84 1.7192 3.84 3.84v16.32c0 2.1207-1.71923 3.84-3.84 3.84h-16.32c-2.12077 0-3.84-1.7193-3.84-3.84v-16.32c0-2.1208 1.71923-3.84 3.84-3.84z" fill="#666"/><path d="m-198.65697-3554.9187h16.32c2.12077 0 3.84 1.7192 3.84 3.84v16.32c0 2.1207-1.71923 3.84-3.84 3.84h-16.32c-2.12077 0-3.84-1.7193-3.84-3.84v-16.32c0-2.1208 1.71923-3.84 3.84-3.84z" stroke="#fff" stroke-linecap="round" stroke-linejoin="round" stroke-width=".25"/><g fill="#8eed62"><path d="m-191.75862-3542.6687v2c0 .2207-.17908.4-.4.4-.22091 0-.4-.1793-.4-.4v-2h-2c-.22091 0-.4-.1793-.4-.4 0-.2209.17909-.4.4-.4h2v-2c0-.2209.17909-.4.4-.4.22092 0 .4.1791.4.4v2h2c.22092 0 .4.1791.4.4 0 .2207-.17908.4-.4.4zm-6-8h5.2c.88366 0 1.6.7163 1.6 1.6 0 .4417.35817.8.8.8h4.4c1.10457 0 2 .8954 2 2v6.4c0 1.1047-.89543 2-2 2h-12c-1.10458 0-2-.8953-2-2v-8.8c0-1.1046.89542-2 2-2zm0 .8c-.66274 0-1.2.5372-1.2 1.2v8.8c0 .6627.53726 1.2 1.2 1.2h12c.66274 0 1.2-.5373 1.2-1.2v-6.4c0-.6628-.53726-1.2-1.2-1.2h-4.4c-.88366 0-1.6-.7163-1.6-1.6 0-.4418-.35818-.8-.8-.8z"/><path d="m-189.9394-3537.709c.07336.086.18237.1403.30409.1403.12171 0 .23073-.0543.3041-.1403zm-7.2959 0v.5403c0 1.1047.89542 2 2 2h11.99999c1.10457 0 2-.8953 2-2v-6.4c0-1.1046-.89543-2-2-2h-.31836v.8h.31836c.66274 0 1.2.5373 1.2 1.2v6.4c0 .6627-.53726 1.2-1.2 1.2h-11.99999c-.66275 0-1.2-.5373-1.2-1.2v-.5403z"/></g></g></svg>

<?xml version="1.0" encoding="UTF-8" standalone="no"?>
<!DOCTYPE svg PUBLIC "-//W3C//DTD SVG 1.1//EN" "http://www.w3.org/Graphics/SVG/1.1/DTD/svg11.dtd">
<svg xmlns="http://www.w3.org/2000/svg" xmlns:xl="http://www.w3.org/1999/xlink" version="1.1" xmlns:dc="http://purl.org/dc/elements/1.1/" viewBox="-202.99697 -3555.4187 25 25" width="25" height="25">
  <defs/>
  <g id="SOURCES" stroke-opacity="1" fill="none" stroke="none" fill-opacity="1" stroke-dasharray="none">
    <title>SOURCES</title>
    <g id="SOURCES_Dark">
      <title>Dark</title>
      <g id="Graphic_11718">
        <title>views/view.other</title>
        <path d="M -198.65697 -3554.9187 L -182.33697 -3554.9187 C -180.2162 -3554.9187 -178.49697 -3553.1995 -178.49697 -3551.0787 L -178.49697 -3534.7587 C -178.49697 -3532.638 -180.2162 -3530.9187 -182.33697 -3530.9187 L -198.65697 -3530.9187 C -200.77774 -3530.9187 -202.49697 -3532.638 -202.49697 -3534.7587 L -202.49697 -3551.0787 C -202.49697 -3553.1995 -200.77774 -3554.9187 -198.65697 -3554.9187 Z" fill="#666"/>
        <path d="M -198.65697 -3554.9187 L -182.33697 -3554.9187 C -180.2162 -3554.9187 -178.49697 -3553.1995 -178.49697 -3551.0787 L -178.49697 -3534.7587 C -178.49697 -3532.638 -180.2162 -3530.9187 -182.33697 -3530.9187 L -198.65697 -3530.9187 C -200.77774 -3530.9187 -202.49697 -3532.638 -202.49697 -3534.7587 L -202.49697 -3551.0787 C -202.49697 -3553.1995 -200.77774 -3554.9187 -198.65697 -3554.9187 Z" stroke="white" stroke-linecap="round" stroke-linejoin="round" stroke-width=".25"/>
      </g>
      <g id="Graphic_11717">
        <path d="M -191.75862 -3542.6687 L -191.75862 -3540.6687 C -191.75862 -3540.448 -191.9377 -3540.2687 -192.15862 -3540.2687 C -192.37953 -3540.2687 -192.55862 -3540.448 -192.55862 -3540.6687 L -192.55862 -3542.6687 L -194.55862 -3542.6687 C -194.77953 -3542.6687 -194.95862 -3542.848 -194.95862 -3543.0687 C -194.95862 -3543.2896 -194.77953 -3543.4687 -194.55862 -3543.4687 L -192.55862 -3543.4687 L -192.55862 -3545.4687 C -192.55862 -3545.6896 -192.37953 -3545.8687 -192.15862 -3545.8687 C -191.9377 -3545.8687 -191.75862 -3545.6896 -191.75862 -3545.4687 L -191.75862 -3543.4687 L -189.75862 -3543.4687 C -189.5377 -3543.4687 -189.35862 -3543.2896 -189.35862 -3543.0687 C -189.35862 -3542.848 -189.5377 -3542.6687 -189.75862 -3542.6687 Z M -197.75862 -3550.6687 L -192.55862 -3550.6687 C -191.67496 -3550.6687 -190.95862 -3549.9524 -190.95862 -3549.0687 C -190.95862 -3548.627 -190.60045 -3548.2687 -190.15862 -3548.2687 L -185.75862 -3548.2687 C -184.65405 -3548.2687 -183.75862 -3547.3733 -183.75862 -3546.2687 L -183.75862 -3539.8687 C -183.75862 -3538.764 -184.65405 -3537.8687 -185.75862 -3537.8687 L -197.75862 -3537.8687 C -198.8632 -3537.8687 -199.75862 -3538.764 -199.75862 -3539.8687 L -199.75862 -3548.6687 C -199.75862 -3549.7733 -198.8632 -3550.6687 -197.75862 -3550.6687 Z M -197.75862 -3549.8687 C -198.42136 -3549.8687 -198.95862 -3549.3315 -198.95862 -3548.6687 L -198.95862 -3539.8687 C -198.95862 -3539.206 -198.42136 -3538.6687 -197.75862 -3538.6687 L -185.75862 -3538.6687 C -185.09588 -3538.6687 -184.55862 -3539.206 -184.55862 -3539.8687 L -184.55862 -3546.2687 C -184.55862 -3546.9315 -185.09588 -3547.4687 -185.75862 -3547.4687 L -190.15862 -3547.4687 C -191.04228 -3547.4687 -191.75862 -3548.185 -191.75862 -3549.0687 C -191.75862 -3549.5105 -192.1168 -3549.8687 -192.55862 -3549.8687 Z" fill="#8eed62"/>
      </g>
      <g id="Graphic_11716">
        <path d="M -189.9394 -3537.709 C -189.86604 -3537.623 -189.75703 -3537.5687 -189.63531 -3537.5687 C -189.5136 -3537.5687 -189.40458 -3537.623 -189.33121 -3537.709 Z M -197.2353 -3537.709 L -197.2353 -3537.1687 C -197.2353 -3536.064 -196.33988 -3535.1687 -195.2353 -3535.1687 L -183.23531 -3535.1687 C -182.13074 -3535.1687 -181.23531 -3536.064 -181.23531 -3537.1687 L -181.23531 -3543.5687 C -181.23531 -3544.6733 -182.13074 -3545.5687 -183.23531 -3545.5687 L -183.55367 -3545.5687 L -183.55367 -3544.7687 L -183.23531 -3544.7687 C -182.57257 -3544.7687 -182.03531 -3544.2314 -182.03531 -3543.5687 L -182.03531 -3537.1687 C -182.03531 -3536.506 -182.57257 -3535.9687 -183.23531 -3535.9687 L -195.2353 -3535.9687 C -195.89805 -3535.9687 -196.4353 -3536.506 -196.4353 -3537.1687 L -196.4353 -3537.709 Z" fill="#8eed62"/>
      </g>
    </g>
  </g>
</svg>
